X:1
T: Miss MacDowal Grant of Arndilly's Strathspey
C:William Marshall
R:Strathspey
Q: 128
K:Cm
M:4/4
L:1/16
|:g2|GG3 c3d e4 e2g2|fb3 df3 B3c dB3|GG3 c3d e4 e2g2|f3b gfed c4 c2g2|
GG3 c3d e4 e2g2|fb3 df3 B3c dB3|GG3 c3d e4 e2g2|f3b gfed c4 c2ga|
b2c2 g2c2 b2c2 g2a2|b2g2 f2b2 d2B2 f2d2|bc3 gc3 bc3 g3a|b3g f2d2 c4 c2ga|
bc3 gc3 bc3 g3a|b3g fg3 d2B2 f2d2|GG3 c3d e4 e2g2|f3b gfed c4 c2:|
